X: 04047
T: K.T.'S JIG
T: (Katie's Jig)
C: Bob McQuillen 24 Sept'79
B: Bob's Note Book 04 #47
R: jig
Z: 2020 John Chambers <jc:trillian.mit.edu>
M: 6/8
L: 1/8
K: D	% and Bm
e \
| fef dAF | GAB AFD | DFA dfa | agf e2a |\
| fef dAF | GAB AFD | DFA GAB | ABc d2 :|
|: e \
| fga gfe | fef dcB | FBc dcB | efg f2e |\
| fga gfe | fef dcB | FBc dfe | dBB B2 :|
%%begintext align
%% I watched Katie Thomas dance
%% yesterday at Michael & Zo\"e's party, and
%% I just had to write this tune for you,
%% Katie, with love from Mac.
%%endtext

%%sep 1 1 500

%%sep 1 1 500

